!!!OTL: IN MORGENROTH GEKLEIDET
!!!ARE: Europa, Mitteleuropa, Deutschland
!!!SCT: B0224
!!!YEM: Copyright 1995, estate of Helmut Schaffrath.
**kern
*ICvox
*Ivox
*M6/8
*k[b-e-]
*B-:
{8f
=1
4b-
8b-
4cc
8cc
=2
4dd
8cc
4b-}
{8a
=3
4g
8a
4b-
8cc
=4
2f
8r}
{8a
=5
4b-
8a
4cc
8b-
=6
4.ee-
4dd}
{8cc
=7
8.b-
16cc
8b-
8a
8g
8a
=8
2b-
8r}
==
!!!AGN: Tageszeiten - Lied, Morgen
!!!ONB: ESAC (Essen Associative Code) Database: BOEHME
!!!AMT: compound duple
!!!AIN: vox
!!!EED: Helmut Schaffrath
!!!EEV: 1.0
*-
